src/img/HomePage/Chopsticks/1LeftDown.svg

<?xml version="1.0" encoding="UTF-8"?> <svg xmlns="http://www.w3.org/2000/svg" width="123" height="48" viewBox="0 0 123 48" fill="none"> <path fill-rule="evenodd" clip-rule="evenodd" d="M4.31347 45.7591C-0.369048 43.6426 -1.25579 39.7137 2.02116 35.6045C15.33 18.9133 83.7154 -2.83916 112.036 0.609654C119.02 1.46025 121.848 3.12967 122.5 6.78642C123.432 12.015 111.175 21.3657 93.2842 29.0747C61.8441 42.6224 16.277 51.1672 4.31347 45.7591ZM27.1267 27.563C20.9783 31.2943 19.4975 33.0833 21.4889 34.3752C27.0939 38.0105 57.7595 33.9247 79.366 26.6628C89.695 23.1917 103.179 16.2191 103.608 14.1278C104.014 12.153 100.147 10.9125 93.5779 10.9104C74.0546 10.9045 40.8721 19.2205 27.1267 27.563Z" fill="#201B19"></path> </svg>

<svg xmlns="http://www.w3.org/2000/svg" width="123" height="48" fill="none"><path fill-rule="evenodd" clip-rule="evenodd" d="M4.313 45.76c-4.682-2.117-5.569-6.046-2.292-10.155C15.33 18.913 83.715-2.84 112.036.61c6.984.85 9.812 2.52 10.464 6.176.932 5.229-11.325 14.58-29.216 22.289-31.44 13.547-77.007 22.092-88.97 16.684Zm22.814-18.197c-6.149 3.731-7.63 5.52-5.638 6.812 5.605 3.636 36.27-.45 57.877-7.712 10.329-3.471 23.813-10.444 24.242-12.535.406-1.975-3.461-3.216-10.03-3.218-19.523-.005-52.706 8.31-66.451 16.653Z" fill="#201B19"/></svg>
